src/ui/images/mark/articulation/marcato.svg

<?xml version="1.0" encoding="UTF-8" standalone="no"?>
<svg
   xmlns:dc="http://purl.org/dc/elements/1.1/"
   xmlns:cc="http://web.resource.org/cc/"
   xmlns:rdf="http://www.w3.org/1999/02/22-rdf-syntax-ns#"
   xmlns:svg="http://www.w3.org/2000/svg"
   xmlns="http://www.w3.org/2000/svg"
   xmlns:xlink="http://www.w3.org/1999/xlink"
   xmlns:sodipodi="http://sodipodi.sourceforge.net/DTD/sodipodi-0.dtd"
   xmlns:inkscape="http://www.inkscape.org/namespaces/inkscape"
   viewBox="0 -200 1000 1000"
   id="svg27169"
   sodipodi:version="0.32"
   inkscape:version="0.45.1"
   width="128"
   height="128"
   sodipodi:docname="marcato.svg"
   sodipodi:docbase="/home/matevz/canorus/trunk/src/ui/images/mark/articulation"
   inkscape:export-filename="/home/matevz/apps/canorus/branches/matevz/src/fonts/n2.png"
   inkscape:export-xdpi="120.95"
   inkscape:export-ydpi="120.95"
   inkscape:output_extension="org.inkscape.output.svg.inkscape"
   version="1.0">
  <metadata
     id="metadata27178">
    <rdf:RDF>
      <cc:Work
         rdf:about="">
        <dc:format>image/svg+xml</dc:format>
        <dc:type
           rdf:resource="http://purl.org/dc/dcmitype/StillImage" />
      </cc:Work>
    </rdf:RDF>
  </metadata>
  <defs
     id="defs27176">
    <linearGradient
       id="linearGradient33317">
      <stop
         style="stop-color:#000000;stop-opacity:1;"
         offset="0"
         id="stop33319" />
      <stop
         style="stop-color:#646464;stop-opacity:1;"
         offset="1"
         id="stop33321" />
    </linearGradient>
    <linearGradient
       inkscape:collect="always"
       xlink:href="#linearGradient33317"
       id="linearGradient33323"
       x1="49.270287"
       y1="920.35596"
       x2="110.55885"
       y2="920.35596"
       gradientUnits="userSpaceOnUse" />
    <linearGradient
       inkscape:collect="always"
       xlink:href="#linearGradient33317"
       id="linearGradient8122"
       gradientUnits="userSpaceOnUse"
       x1="49.270287"
       y1="920.35596"
       x2="110.55885"
       y2="920.35596" />
    <linearGradient
       inkscape:collect="always"
       xlink:href="#linearGradient33317"
       id="linearGradient19732"
       gradientUnits="userSpaceOnUse"
       x1="49.270287"
       y1="920.35596"
       x2="110.55885"
       y2="920.35596"
       gradientTransform="matrix(5.6766826,0,0,5.6766826,-206.90519,-4941.8885)" />
    <linearGradient
       inkscape:collect="always"
       xlink:href="#linearGradient33317"
       id="linearGradient20714"
       x1="483.75861"
       y1="336.54208"
       x2="900.97968"
       y2="336.54208"
       gradientUnits="userSpaceOnUse"
       gradientTransform="matrix(0.7657372,0,0,0.7657372,175.82664,67.12053)" />
    <linearGradient
       inkscape:collect="always"
       xlink:href="#linearGradient33317"
       id="linearGradient21697"
       gradientUnits="userSpaceOnUse"
       gradientTransform="matrix(0.7657372,0,0,0.7657372,175.82664,67.12053)"
       x1="483.75861"
       y1="336.54208"
       x2="900.97968"
       y2="336.54208" />
    <linearGradient
       inkscape:collect="always"
       xlink:href="#linearGradient33317"
       id="linearGradient21703"
       gradientUnits="userSpaceOnUse"
       gradientTransform="matrix(5.6766826,0,0,5.6766826,-206.90519,-4941.8885)"
       x1="49.270287"
       y1="920.35596"
       x2="110.55885"
       y2="920.35596" />
    <linearGradient
       inkscape:collect="always"
       xlink:href="#linearGradient33317"
       id="linearGradient21707"
       gradientUnits="userSpaceOnUse"
       gradientTransform="matrix(0.5805313,0,0,0.5805313,-202.92606,52.853836)"
       x1="483.75861"
       y1="336.54208"
       x2="900.97968"
       y2="336.54208" />
    <linearGradient
       inkscape:collect="always"
       xlink:href="#linearGradient33317"
       id="linearGradient23661"
       gradientUnits="userSpaceOnUse"
       gradientTransform="matrix(0.5805313,0,0,0.5805313,-202.92606,52.853836)"
       x1="483.75861"
       y1="336.54208"
       x2="900.97968"
       y2="336.54208" />
    <linearGradient
       inkscape:collect="always"
       xlink:href="#linearGradient33317"
       id="linearGradient2238"
       gradientUnits="userSpaceOnUse"
       gradientTransform="matrix(0.5805313,0,0,0.5805313,-216.73483,128.73884)"
       x1="483.75861"
       y1="336.54208"
       x2="2008.1578"
       y2="336.54208" />
    <linearGradient
       inkscape:collect="always"
       xlink:href="#linearGradient33317"
       id="linearGradient2248"
       gradientUnits="userSpaceOnUse"
       gradientTransform="matrix(0.5805313,0,0,0.5805313,-216.73483,128.73884)"
       x1="483.75861"
       y1="336.54208"
       x2="2008.1578"
       y2="336.54208" />
    <linearGradient
       inkscape:collect="always"
       xlink:href="#linearGradient33317"
       id="linearGradient3229"
       x1="-8.1343279"
       y1="250"
       x2="799"
       y2="250"
       gradientUnits="userSpaceOnUse" />
    <linearGradient
       inkscape:collect="always"
       xlink:href="#linearGradient33317"
       id="linearGradient4216"
       gradientUnits="userSpaceOnUse"
       x1="-8.1343279"
       y1="250"
       x2="799"
       y2="250" />
    <linearGradient
       inkscape:collect="always"
       xlink:href="#linearGradient33317"
       id="linearGradient5390"
       x1="-273"
       y1="0.31521606"
       x2="273"
       y2="0.31521606"
       gradientUnits="userSpaceOnUse" />
    <linearGradient
       inkscape:collect="always"
       xlink:href="#linearGradient33317"
       id="linearGradient6377"
       gradientUnits="userSpaceOnUse"
       x1="-273"
       y1="0.31521606"
       x2="273"
       y2="0.31521606" />
    <linearGradient
       inkscape:collect="always"
       xlink:href="#linearGradient33317"
       id="linearGradient7410"
       x1="37.855946"
       y1="19.808781"
       x2="742.65802"
       y2="19.808781"
       gradientUnits="userSpaceOnUse" />
    <linearGradient
       inkscape:collect="always"
       xlink:href="#linearGradient33317"
       id="linearGradient8393"
       gradientUnits="userSpaceOnUse"
       x1="37.855946"
       y1="19.808781"
       x2="742.65802"
       y2="19.808781" />
    <linearGradient
       inkscape:collect="always"
       xlink:href="#linearGradient33317"
       id="linearGradient2212"
       gradientUnits="userSpaceOnUse"
       x1="37.855946"
       y1="19.808781"
       x2="742.65802"
       y2="19.808781" />
    <linearGradient
       inkscape:collect="always"
       xlink:href="#linearGradient33317"
       id="linearGradient3231"
       x1="-225.0625"
       y1="0"
       x2="225"
       y2="0"
       gradientUnits="userSpaceOnUse" />
    <linearGradient
       inkscape:collect="always"
       xlink:href="#linearGradient33317"
       id="linearGradient4210"
       gradientUnits="userSpaceOnUse"
       x1="-225.0625"
       y1="0"
       x2="225"
       y2="0" />
    <linearGradient
       inkscape:collect="always"
       xlink:href="#linearGradient33317"
       id="linearGradient4218"
       gradientUnits="userSpaceOnUse"
       x1="-225.0625"
       y1="0"
       x2="225"
       y2="0" />
    <linearGradient
       inkscape:collect="always"
       xlink:href="#linearGradient33317"
       id="linearGradient3270"
       x1="-58.57143"
       y1="121.3"
       x2="58.57143"
       y2="121.3"
       gradientUnits="userSpaceOnUse" />
    <linearGradient
       inkscape:collect="always"
       xlink:href="#linearGradient33317"
       id="linearGradient4257"
       gradientUnits="userSpaceOnUse"
       x1="-58.57143"
       y1="121.3"
       x2="58.57143"
       y2="121.3" />
    <linearGradient
       inkscape:collect="always"
       xlink:href="#linearGradient33317"
       id="linearGradient5376"
       x1="-125"
       y1="137.63635"
       x2="125"
       y2="137.63635"
       gradientUnits="userSpaceOnUse" />
    <linearGradient
       inkscape:collect="always"
       xlink:href="#linearGradient33317"
       id="linearGradient5378"
       gradientUnits="userSpaceOnUse"
       x1="-125"
       y1="137.63635"
       x2="125"
       y2="137.63635" />
    <linearGradient
       inkscape:collect="always"
       xlink:href="#linearGradient33317"
       id="linearGradient6363"
       gradientUnits="userSpaceOnUse"
       x1="-125"
       y1="137.63635"
       x2="125"
       y2="137.63635" />
    <linearGradient
       inkscape:collect="always"
       xlink:href="#linearGradient33317"
       id="linearGradient6365"
       gradientUnits="userSpaceOnUse"
       x1="-125"
       y1="137.63635"
       x2="125"
       y2="137.63635" />
  </defs>
  <sodipodi:namedview
     inkscape:window-height="979"
     inkscape:window-width="1400"
     inkscape:pageshadow="2"
     inkscape:pageopacity="0.0"
     borderopacity="1.0"
     bordercolor="#666666"
     pagecolor="#ffffff"
     id="base"
     inkscape:zoom="2.8284271"
     inkscape:cx="96.698609"
     inkscape:cy="31.762805"
     inkscape:window-x="0"
     inkscape:window-y="0"
     inkscape:current-layer="svg27169"
     width="128px"
     height="128px" />
  <g
     id="g6357"
     transform="matrix(0.8184562,0,0,0.8184562,366.2943,152.64969)">
    <g
       style="fill:#000000;fill-opacity:0.39215686"
       id="g5380"
       transform="matrix(1.2629883,0,0,-1.2629883,172.85156,361.52842)">
      <path
         style="fill:#000000;fill-opacity:0.39215686"
         id="path5382"
         d="M -7,273 C -1.6666667,276.33333 3.6666667,276 9,272 C 11,270.66667 12.666667,268.33333 14,265 L 71,140 C 107,60 125,18 125,14 C 123.66667,8.6666667 120.66667,4.6666667 116,2 C 114,0.66666667 101,0 77,0 C 57.666667,0 46,0.33333333 42,1 C 38,1.6666667 35,3.3333333 33,6 C 31,8 19.666667,32 -1,78 L -32,147 L -34,144 L -38,134 L -49.5,109 L -64,78 C -85.333333,30 -97.333333,5 -100,3 C -105.33333,-0.33333333 -110.5,-0.66666667 -115.5,2 C -120.5,4.6666667 -123.66667,8.6666667 -125,14 C -125,18 -106.66667,60.666667 -70,142 L -34.5,221.5 C -34.5,221.5 -27.333333,237 -13,268 C -10.333333,270.66667 -8.3333333,272.33333 -7,273 z " />
    </g>
    <g
       style="fill:url(#linearGradient6363);fill-opacity:1"
       id="g4390"
       transform="matrix(1.2629885,0,0,-1.2629885,153.87504,346.20675)">
      <path
         style="fill:url(#linearGradient6365);fill-opacity:1"
         id="path4392"
         d="M -7,273 C -1.6666667,276.33333 3.6666667,276 9,272 C 11,270.66667 12.666667,268.33333 14,265 L 71,140 C 107,60 125,18 125,14 C 123.66667,8.6666667 120.66667,4.6666667 116,2 C 114,0.66666667 101,0 77,0 C 57.666667,0 46,0.33333333 42,1 C 38,1.6666667 35,3.3333333 33,6 C 31,8 19.666667,32 -1,78 L -32,147 L -34,144 L -38,134 L -49.5,109 L -64,78 C -85.333333,30 -97.333333,5 -100,3 C -105.33333,-0.33333333 -110.5,-0.66666667 -115.5,2 C -120.5,4.6666667 -123.66667,8.6666667 -125,14 C -125,18 -106.66667,60.666667 -70,142 L -34.5,221.5 C -34.5,221.5 -27.333333,237 -13,268 C -10.333333,270.66667 -8.3333333,272.33333 -7,273 z " />
    </g>
  </g>
</svg>

<?xml version="1.0" standalone="no"?>
<!DOCTYPE svg PUBLIC "-//W3C//DTD SVG 1.1//EN" "http://www.w3.org/Graphics/SVG/1.1/DTD/svg11.dtd" >
<svg viewBox="-125 -200 1000 1000">
  <g transform="matrix(1 0 0 -1 0 800)">
   <path fill="currentColor"
d="M-7 273q8 5 16 -1q3 -2 5 -7l57 -125q54 -120 54 -126q-2 -8 -9 -12q-3 -2 -39 -2q-29 0 -35 1t-9 5q-3 3 -34 72l-31 69l-2 -3l-4 -10l-11.5 -25l-14.5 -31q-32 -72 -36 -75q-8 -5 -15.5 -1t-9.5 12q0 6 55 128l35.5 79.5t21.5 46.5q4 4 6 5z" />
  </g>

</svg>
